X: 146
T: The Myrtle
%R: reel
B: Chas & Sam Thompson "Twenty Four Country Dances for the Year 1779", London 1779, p.73 #2
F: http://www.vwml.org/browse/browse-collections-dance-tune-books/browse-thompsons1779
Z: 2014 John Chambers <jc:trillian.mit.edu> (added dance description)
M: C|
L: 1/8
K: G
% - - - - - - - - - - - - - - - - - - - - - - - - - - - - -
|:\
Bddg g2fe | dBAG e2d2 |\
Bddg g2fe | dBAG A2 D2 :|
|:\
AFAd BGBd | AFAd cBAG |\
dBd=f eceg | ^fagf g2G2 :|
% - - - - - - - - - - Dance description - - - - - - - - - -
%%begintext align
%%    The 1st Gent: turn the 2d Lady .|.
%% the 1st Lady turn the 2d Gent :|. Cross
%% over one Cu .|: Right & Left :|:
%%endtext

%%sep 1 1 500
%%sep 1 1 500
